X:1
T:Title
%%score { ( 1 3 ) | 2 }
L:1/8
Q:1/4=100
M:9/8
K:Ab
V:1 treble nm="Grand Piano"
V:3 treble 
V:2 bass 
V:1
 [CE][_C=D][=CE] [_DF]3 [CE]3 | EcB [CA]6 | F=EF [_EG]3 [DF]3 | [CE][EA][Ec] [EB]6 | %4
w: L.~M.~B. * * * *||||
 [Ec][=D_c][E=c] [Ae]3 [Ec]3 | [Ec][EB][EA] F6 | Edc c3 B3 | EcB [CA]6 | EAc f3 e3 | cBA E6 | %10
w: ||||||
 EGB [Gd]3 [Gf]2 [Gf] | [Gf][Ae][Bd] c6 | z3 z3 e3 | [Fe][Fd][FB] F6 | Ecc c3 [=DB]3 | EcB [CA]6 |] %16
w: ||||||
V:2
 [A,,A,][A,,A,][A,,A,] [A,,A,]3 [A,,A,]3 | [E,A,C][E,A,E][E,G,D] [A,,A,]6 | %2
 [D,A,D][D,A,D][D,A,D] [D,A,]3 [D,A,]3 | [A,,A,][C,A,][E,A,] [E,G,]6 | %4
 [A,,A,][A,,A,][A,,A,] [A,,C]3 [A,,A,]3 | [A,,A,][B,,G,][C,A,] [D,A,D]6 | %6
 [E,A,C][E,G,E][E,A,E] [E,A,E]3 [E,G,E]3 | [E,G,][E,A,E][E,G,D] [A,,A,]6 | %8
 [A,C][A,CE][A,EA] [A,DA]3 [A,CA]3 | [A,EA][A,DG][K:bass][A,CE] [A,C]6 | %10
 [G,B,D][E,B,D][E,G,D] [E,B,]3 [E,D]2 [E,D] | [E,D][F,C][K:treble][G,E] [A,EA]6 | %12
 [A,C][A,CE][A,EA] [A,DA]3 .[A,CA]3 | [D,D][D,D][D,D] [D,B,D]6 | %14
 [E,A,][E,A,F][E,A,E] [F,B,E]3 [B,,A,]3 | [E,G,D][E,G,E][E,G,D] [A,,A,]6 |] %16
V:3
 x9 | x9 | x9 | x9 | x9 | x9 | x9 | x9 | x9 | x9 | x9 | x9 | EAc f3 z2 _G | x9 | x9 | x9 |] %16

